require ("exampLib.genexpr");

Param freq(.1);
Param sel(0.0, min=0.0, max=1.0);
Param offset(0.0, min=0.0, max=1.0);


p = phasor(freq);
pOffset = (p + offset) % 1.; 

out1, out2 = branch(p, sel);
out3, out4 = branch2(pOffset, sel);